img/hero/icons/icon1.svg

<svg width="37" height="37" viewBox="0 0 37 37" fill="none" xmlns="http://www.w3.org/2000/svg">
<g clip-path="url(#clip0_1710_4060)">
<path d="M36.9742 6.62821C36.9002 6.35438 36.6782 6.14716 36.4044 6.09536L5.67638 0.011924C5.48397 -0.0250798 5.27675 0.0119195 5.11393 0.122931C4.95111 0.233943 4.8401 0.404167 4.8031 0.603987L4.58107 1.8029C4.51447 1.78811 4.44046 1.78811 4.37385 1.8103C4.24804 1.86211 1.37654 3.03884 0.569859 6.48759C0.532855 6.64301 0.599462 6.80582 0.740074 6.88723L4.28504 8.97424C4.29244 8.98164 4.29984 8.97424 4.31464 8.98164C4.34425 8.99644 4.37385 9.01124 4.40345 9.01864L7.62281 9.65511C7.62281 9.69951 7.63021 9.75131 7.64501 9.79571L8.56269 12.127C8.58489 12.1788 8.62189 12.2232 8.65889 12.2602L8.42949 13.4221L0.370038 13.4369C0.162817 13.4369 0 13.5998 0 13.807V18.3362C0 18.4546 0.0592061 18.5656 0.155416 18.6323C0.222023 18.6767 0.29603 18.7063 0.370038 18.7063C0.407042 18.7063 0.444046 18.6989 0.48845 18.6915L9.77644 15.6572C9.85044 15.6646 9.91704 15.6794 9.99104 15.6794C10.3092 15.6794 10.6201 15.5831 10.8939 15.4055C11.2566 15.1613 11.5008 14.7986 11.5822 14.3694L11.8857 12.8522C11.9079 12.8448 11.9375 12.8449 11.9597 12.83L14.4019 10.9947L14.6757 11.0465C14.6757 11.0539 14.6757 11.0613 14.6832 11.0687C14.698 11.0835 15.8154 12.9337 15.2012 14.5396C14.8312 15.4943 13.9134 16.2048 12.4555 16.6341C9.70984 17.4481 9.19176 19.3501 9.58396 20.7415C10.0576 22.414 11.8413 23.7906 14.2761 23.7906C14.6906 23.7906 15.1346 23.7314 15.586 23.65L15.3788 24.8933C15.3492 25.0931 15.4824 25.2855 15.6822 25.3151L17.6213 25.6333L17.3252 27.4466L16.9034 27.38C16.8071 27.3652 16.7109 27.3874 16.6295 27.4466C16.5481 27.5058 16.4963 27.5872 16.4815 27.6908L15.9856 30.7029C15.9708 30.7991 15.993 30.8953 16.0522 30.9767C16.0744 31.0137 16.1114 31.0433 16.1485 31.0655H3.63378C3.42656 31.0655 3.26374 31.2283 3.26374 31.4355V35.3136C3.26374 35.4246 3.30814 35.5282 3.39695 35.5948C3.46356 35.654 3.55237 35.6836 3.63378 35.6836C3.65598 35.6836 3.67818 35.6836 3.69298 35.6762L16.3335 33.53L19.8933 34.1146C19.9155 34.1146 19.9303 34.122 19.9525 34.122C20.0265 34.122 20.1079 34.0998 20.1671 34.0554C20.2485 33.9962 20.3003 33.9148 20.3151 33.8112L20.6629 31.7094C21.2402 31.6428 21.7952 31.443 22.2837 31.0951C23.0238 30.5623 23.5196 29.7704 23.6676 28.8675C23.6972 28.6677 23.564 28.4752 23.3642 28.4456L23.1126 28.4012C23.934 27.5798 24.5557 25.959 24.8222 24.3457C25.0886 22.7322 25.0146 20.9931 24.4965 19.9569L24.6223 19.9792C24.8222 20.0088 25.0294 20.031 25.2292 20.031C27.0128 20.031 28.5892 18.7359 28.8852 16.9227C28.9 16.8265 28.8778 16.7303 28.8186 16.6489C28.7594 16.5675 28.678 16.5157 28.5744 16.5009L18.9311 14.917C18.8349 14.9022 18.7387 14.9244 18.6573 14.9837C18.5759 15.0429 18.5241 15.1243 18.5093 15.2279L17.969 18.5212C17.9394 18.7211 18.0727 18.9135 18.2725 18.9431L18.6943 19.0097L18.3613 21.0301L16.4223 20.7119C16.2225 20.6749 16.03 20.8155 16.0004 21.0153L15.697 22.8729C12.8995 23.5241 10.7607 22.229 10.2796 20.5416C9.96884 19.4315 10.4277 18.0032 12.6479 17.3445C14.3353 16.8413 15.4232 15.9902 15.8746 14.7986C16.3927 13.4295 15.9264 11.9937 15.5786 11.2315L27.6641 13.622C27.6863 13.6294 27.7085 13.6294 27.7381 13.6294C27.8121 13.6294 27.8861 13.6072 27.9453 13.5702C28.0267 13.5183 28.0859 13.4295 28.1007 13.3333L28.4708 11.4757L31.024 11.9789C31.0684 11.9863 31.1202 11.9937 31.1647 11.9937C31.3423 11.9937 31.5125 11.9271 31.6531 11.8087L36.7522 7.36829C36.9594 7.19067 37.0482 6.90204 36.9742 6.62821ZM18.3835 25.3891L18.5611 24.3309L19.4196 19.1281L22.8832 19.6979L21.4918 28.1422L19.3752 27.7944L18.0282 27.5724L18.3835 25.3891ZM4.00381 31.8056H16.1781L16.0078 32.8343L4.00381 34.8769V31.8056ZM19.6416 33.3302L16.7479 32.8565L17.0144 31.2579L18.7239 31.5392L19.9081 31.7316L19.6416 33.3302ZM21.847 30.5031C21.2624 30.9175 20.5519 31.0877 19.8489 30.9693L18.9459 30.8213L16.7701 30.4661H16.7479L17.1254 28.1792L17.5472 28.2458L18.0504 28.3272L22.8536 29.1191C22.676 29.6742 22.3281 30.1553 21.847 30.5031ZM24.0821 24.2346C23.7194 26.4252 22.8684 27.7944 22.2467 28.1274L23.5862 19.9569C24.0821 20.4676 24.4447 22.0366 24.0821 24.2346ZM19.168 15.7016L28.0563 17.1595C27.6419 18.5731 26.2209 19.4907 24.726 19.2465L23.4086 19.0319L18.7387 18.2622L19.168 15.7016ZM16.6591 21.5038L18.2281 21.7628L17.8654 23.9534L17.7101 24.9155L16.1411 24.6565L16.3705 23.2429C16.3705 23.2429 16.3705 23.2429 16.3705 23.2355L16.6591 21.5038ZM6.37946 8.66344L6.67549 7.16846L25.7103 10.9355L25.4142 12.4304L6.37946 8.66344ZM5.42476 5.41448L5.62458 4.33397C8.04461 4.81502 15.438 6.28037 15.438 6.28037C15.4602 6.28777 15.4898 6.28777 15.512 6.28777C15.6156 6.28777 15.7192 6.24336 15.7858 6.16196L17.7915 3.91953L30.8168 6.49499L27.7307 9.82531L5.42476 5.41448ZM16.9478 3.74931L15.3714 5.51069C14.1577 5.26646 7.93361 4.03794 5.75039 3.6087L6.11303 1.61048L16.9478 3.74931ZM4.43306 2.60219L3.8336 5.85853C3.75959 6.25816 4.01861 6.63561 4.41826 6.71702L4.47747 6.73182L4.21104 8.07876L1.35434 6.39878C2.01301 4.02313 3.81879 2.92042 4.43306 2.60219ZM5.20274 6.87983L5.94281 7.02785L5.64678 8.52284L4.90671 8.37476L5.20274 6.87983ZM0.732675 14.1918L8.34069 14.1844C8.36289 14.4582 8.44429 14.732 8.60709 14.9688C8.66629 15.0577 8.73289 15.1317 8.79949 15.2057L0.732675 17.8404V14.1918ZM10.8421 14.2362C10.7977 14.4656 10.6645 14.6654 10.4647 14.7986C10.2648 14.9318 10.0354 14.9762 9.79864 14.9318H9.78384C9.31016 14.8356 8.99196 14.3694 9.08816 13.8958L9.35456 12.5488L11.1012 12.8967L10.8421 14.2362ZM11.6192 12.1492L9.16956 11.6829L8.44429 9.83271L13.4028 10.8171L11.6192 12.1492ZM27.4346 12.83L26.1395 12.571L26.4355 11.0761L27.7307 11.3351L27.4346 12.83ZM30.9426 10.4618L28.5818 9.99559L31.6679 6.66521L34.6356 7.24988L30.9426 10.4618Z" fill="url(#paint0_linear_1710_4060)"/>
<path d="M27.257 26.8758C27.0572 26.8462 26.8647 26.972 26.8277 27.1719C26.7907 27.3717 26.9239 27.5641 27.1238 27.6011C27.2274 27.6233 27.3384 27.6307 27.442 27.6307C28.2709 27.6307 29.0183 27.0386 29.1738 26.1875C29.344 25.2329 28.7149 24.3152 27.7603 24.1449C27.5604 24.1153 27.368 24.2411 27.331 24.441C27.294 24.6408 27.4272 24.8332 27.627 24.8702C28.1821 24.9739 28.5447 25.4993 28.4485 26.0543C28.3375 26.6094 27.8047 26.972 27.257 26.8758Z" fill="url(#paint1_linear_1710_4060)"/>
<path d="M26.428 29.3566C26.391 29.5564 26.5242 29.7488 26.724 29.7858C26.9683 29.8302 27.2051 29.8524 27.4419 29.8524C29.3217 29.8524 31.0017 28.5055 31.357 26.5887C31.5494 25.5452 31.32 24.4869 30.7131 23.6136C30.1062 22.7403 29.2033 22.1556 28.1524 21.9632C27.9526 21.9262 27.7602 22.0594 27.7232 22.2593C27.6862 22.4591 27.8194 22.6515 28.0192 22.6885C28.8703 22.844 29.6103 23.3176 30.0988 24.0354C30.5873 24.7459 30.7797 25.6118 30.6169 26.4555C30.2986 28.2095 28.6187 29.3862 26.8499 29.0605C26.6648 29.0235 26.465 29.1567 26.428 29.3566Z" fill="url(#paint2_linear_1710_4060)"/>
<path d="M28.5078 20.0375C28.3079 20.0079 28.1155 20.1337 28.0785 20.3335C28.0415 20.5333 28.1747 20.7257 28.3746 20.7628C31.1942 21.2808 33.0666 23.9895 32.5485 26.8018C32.0379 29.6215 29.3218 31.4939 26.5095 30.9758C26.3097 30.9388 26.1173 31.072 26.0803 31.2718C26.0433 31.4716 26.1765 31.6641 26.3763 31.7011C26.7389 31.7677 27.0942 31.7973 27.4568 31.7973C28.6484 31.7973 29.8177 31.4346 30.8168 30.7464C32.1193 29.8435 32.9926 28.4891 33.2812 26.935C33.5699 25.3808 33.2294 23.7971 32.3265 22.4945C31.4237 21.1994 30.0619 20.3187 28.5078 20.0375Z" fill="url(#paint3_linear_1710_4060)"/>
</g>
<defs>
<linearGradient id="paint0_linear_1710_4060" x1="0" y1="-0.00195312" x2="36.369" y2="37.8916" gradientUnits="userSpaceOnUse">
<stop stop-color="#0ABD92"/>
<stop offset="1" stop-color="#009DB8"/>
</linearGradient>
<linearGradient id="paint1_linear_1710_4060" x1="26.8215" y1="24.1406" x2="30.1415" y2="26.4158" gradientUnits="userSpaceOnUse">
<stop stop-color="#0ABD92"/>
<stop offset="1" stop-color="#009DB8"/>
</linearGradient>
<linearGradient id="paint2_linear_1710_4060" x1="26.4219" y1="21.957" x2="33.7183" y2="26.6017" gradientUnits="userSpaceOnUse">
<stop stop-color="#0ABD92"/>
<stop offset="1" stop-color="#009DB8"/>
</linearGradient>
<linearGradient id="paint3_linear_1710_4060" x1="26.0741" y1="20.0332" x2="36.8541" y2="26.762" gradientUnits="userSpaceOnUse">
<stop stop-color="#0ABD92"/>
<stop offset="1" stop-color="#009DB8"/>
</linearGradient>
<clipPath id="clip0_1710_4060">
<rect width="37" height="37" fill="white"/>
</clipPath>
</defs>
</svg>

<svg width="37" height="37" fill="none" xmlns="http://www.w3.org/2000/svg"><g clip-path="url(#clip0_1710_4060)"><path d="M36.974 6.628a.735.735 0 00-.57-.533L5.676.012a.754.754 0 00-.562.11.74.74 0 00-.31.482L4.58 1.803a.395.395 0 00-.207.007C4.248 1.862 1.377 3.04.57 6.488a.363.363 0 00.17.4l3.545 2.086c.007.008.015 0 .03.008.03.014.059.03.088.037l3.22.636a.45.45 0 00.022.14l.918 2.332a.44.44 0 00.096.133l-.23 1.162-8.059.015a.367.367 0 00-.37.37v4.53c0 .118.06.229.155.295a.393.393 0 00.215.074c.037 0 .074-.007.118-.014l9.288-3.035c.074.008.141.022.215.022.318 0 .63-.096.903-.274a1.59 1.59 0 00.688-1.036l.304-1.517c.022-.007.052-.007.074-.022l2.442-1.835.274.052c0 .007 0 .014.007.022.015.014 1.132 1.865.518 3.47-.37.955-1.288 1.666-2.745 2.095-2.746.814-3.264 2.716-2.872 4.107.474 1.673 2.257 3.05 4.692 3.05.415 0 .859-.06 1.31-.141l-.207 1.243c-.03.2.103.392.303.422l1.94.318-.297 1.814-.422-.067a.365.365 0 00-.273.067.355.355 0 00-.148.244l-.496 3.012a.365.365 0 00.162.363H3.634a.366.366 0 00-.37.37v3.878c0 .11.044.214.133.28a.36.36 0 00.237.09c.022 0 .044 0 .059-.008l12.64-2.146 3.56.585c.023 0 .037.007.06.007a.368.368 0 00.214-.067.355.355 0 00.148-.244l.348-2.102a3.455 3.455 0 001.62-.614 3.414 3.414 0 001.385-2.227.369.369 0 00-.304-.422l-.251-.045c.821-.821 1.443-2.442 1.71-4.055.266-1.614.192-3.353-.326-4.39l.125.023c.2.03.407.052.607.052a3.713 3.713 0 003.656-3.108.365.365 0 00-.066-.274.355.355 0 00-.245-.148l-9.643-1.584a.365.365 0 00-.274.067.355.355 0 00-.148.244l-.54 3.293c-.03.2.104.392.303.422l.422.067-.333 2.02-1.939-.318a.363.363 0 00-.422.303l-.303 1.858c-2.797.651-4.936-.644-5.417-2.331-.311-1.11.148-2.539 2.368-3.198 1.687-.503 2.775-1.354 3.227-2.545.518-1.37.051-2.805-.296-3.567l12.085 2.39a.398.398 0 00.281-.052.35.35 0 00.156-.237l.37-1.857 2.553.503a.907.907 0 00.14.015.757.757 0 00.49-.185l5.098-4.44a.726.726 0 00.222-.74zM18.384 25.39l.177-1.058.859-5.203 3.463.57-1.391 8.444-2.117-.348-1.347-.222.356-2.183zm-14.38 6.417h12.174l-.17 1.028-12.004 2.043v-3.071zm15.638 1.524l-2.894-.474.266-1.598 1.71.281 1.184.193-.266 1.598zm2.205-2.827a2.673 2.673 0 01-1.998.466l-.903-.148-2.176-.355h-.022l.377-2.287.422.067.503.081 4.804.792a2.726 2.726 0 01-1.007 1.384zm2.235-6.268c-.363 2.19-1.214 3.56-1.835 3.892l1.34-8.17c.495.51.858 2.08.495 4.278zm-4.914-8.533l8.888 1.458a2.973 2.973 0 01-3.33 2.087l-1.317-.215-4.67-.77.429-2.56zm-2.509 5.802l1.57.259-.364 2.19-.155.963-1.569-.26.23-1.413v-.008l.288-1.731zM6.38 8.664l.296-1.496 19.035 3.767-.296 1.495L6.38 8.663zm-.954-3.25l.2-1.08c2.42.481 9.813 1.946 9.813 1.946a.355.355 0 00.348-.118L17.79 3.92l13.026 2.575-3.086 3.33-22.306-4.41zM16.948 3.75L15.37 5.511c-1.213-.245-7.437-1.473-9.62-1.902l.362-1.999 10.835 2.14zM4.433 2.602l-.6 3.257c-.073.4.186.777.585.858l.06.015-.267 1.347-2.857-1.68c.659-2.376 2.465-3.479 3.08-3.797zm.77 4.278l.74.148-.296 1.495-.74-.148.296-1.495zm-4.47 7.312l7.608-.008a1.604 1.604 0 00.458 1.022L.733 17.84v-3.648zm10.11.044a.871.871 0 01-.378.563.885.885 0 01-.666.133h-.015a.888.888 0 01-.696-1.036l.267-1.347 1.746.348-.259 1.34zm.776-2.087l-2.45-.466-.725-1.85 4.959.984-1.784 1.332zm15.816.681l-1.295-.259.296-1.495 1.295.26-.296 1.494zm3.508-2.368l-2.361-.466 3.086-3.33 2.968.584-3.693 3.212z" fill="url(#paint0_linear_1710_4060)"/><path d="M27.257 26.876a.375.375 0 00-.43.296.37.37 0 00.297.43 1.765 1.765 0 002.05-1.414 1.757 1.757 0 00-1.414-2.043.375.375 0 00-.429.296.37.37 0 00.296.43c.555.103.918.628.822 1.183a1.037 1.037 0 01-1.192.822z" fill="url(#paint1_linear_1710_4060)"/><path d="M26.428 29.357a.37.37 0 00.296.429c.244.044.481.066.718.066 1.88 0 3.56-1.346 3.915-3.263a3.933 3.933 0 00-.644-2.975 3.958 3.958 0 00-2.56-1.65.37.37 0 00-.134.725 3.186 3.186 0 012.08 1.346c.488.71.68 1.577.518 2.42a3.233 3.233 0 01-3.767 2.606.37.37 0 00-.422.296z" fill="url(#paint2_linear_1710_4060)"/><path d="M28.508 20.038a.375.375 0 00-.43.296.37.37 0 00.297.429 5.19 5.19 0 01-1.865 10.213.37.37 0 00-.134.725 5.918 5.918 0 004.44-.955 5.924 5.924 0 002.465-3.811 5.875 5.875 0 00-.954-4.44 5.93 5.93 0 00-3.82-2.457z" fill="url(#paint3_linear_1710_4060)"/></g><defs><linearGradient id="paint0_linear_1710_4060" x1="0" y1="-.002" x2="36.369" y2="37.892" gradientUnits="userSpaceOnUse"><stop stop-color="#0ABD92"/><stop offset="1" stop-color="#009DB8"/></linearGradient><linearGradient id="paint1_linear_1710_4060" x1="26.822" y1="24.141" x2="30.142" y2="26.416" gradientUnits="userSpaceOnUse"><stop stop-color="#0ABD92"/><stop offset="1" stop-color="#009DB8"/></linearGradient><linearGradient id="paint2_linear_1710_4060" x1="26.422" y1="21.957" x2="33.718" y2="26.602" gradientUnits="userSpaceOnUse"><stop stop-color="#0ABD92"/><stop offset="1" stop-color="#009DB8"/></linearGradient><linearGradient id="paint3_linear_1710_4060" x1="26.074" y1="20.033" x2="36.854" y2="26.762" gradientUnits="userSpaceOnUse"><stop stop-color="#0ABD92"/><stop offset="1" stop-color="#009DB8"/></linearGradient><clipPath id="clip0_1710_4060"><path fill="#fff" d="M0 0h37v37H0z"/></clipPath></defs></svg>
